public/img/blurred-background.svg

<svg xmlns="http://www.w3.org/2000/svg" width="1440" height="544" fill="none" xmlns:v="https://vecta.io/nano"><style><![CDATA[.B{opacity:.15}.C{fill:#ebc136}.D{fill:#8047f8}]]></style><g clip-path="url(#B)" filter="url(#A)"><path d="M1374.19 237.88c33.51 37.09 60.69 101.571 10.61 147.093-5.17 4.693-53.62 47.275-126.5 41.987-88.76-6.44-106.96-76.148-204.92-94.244-106.082-19.597-168.343 46.709-220.149 26.34-61.26-24.086-68.78-153.985 42.1-209.66 133.579-67.07 408.749-11.245 498.859 88.484z" class="B C"/><path d="M539.245 429.639c31.062-19.07 64.91-57.491 43.889-96.354-2.168-4.007-22.872-40.631-71.455-49.451-59.174-10.744-88.517 32.686-156.587 28.162-73.717-4.9-97.404-59.695-136.121-54.882-45.782 5.692-83.344 91.096-25.458 147.035 69.735 67.389 262.21 76.768 345.732 25.49z" class="B C"/><path d="M721.575 321.89c-15.388-21.091-31.111-61.669-17.628-99.031 1.39-3.852 14.572-39.002 40.93-44.562 32.106-6.771 45.136 38.502 81.604 38.526 39.492.026 55.336-53.049 75.641-45.668 24.009 8.728 38.922 96.415 4.822 148.353-41.079 62.567-143.991 59.094-185.369 2.382z" class="B C"/><path d="M709.467 274.802c16.818-10.678 35.155-32.169 23.81-53.866-1.17-2.237-12.346-22.682-38.623-27.573-32.005-5.956-47.909 18.33-84.731 15.855-39.876-2.68-52.653-33.275-73.601-30.557-24.772 3.215-45.151 50.959-13.874 82.167 37.68 37.595 141.799 42.686 187.019 13.974z" class="B C"/><path d="M1433.62 248.365c18.14-16.319 38.08-48.871 26.33-81.173-1.21-3.331-12.81-33.762-40.78-40.597-34.08-8.326-51.47 28.37-90.75 25.351-42.53-3.268-55.67-48.88-78.08-44.412-26.51 5.284-49.06 77.217-16.19 123.4 39.61 55.635 150.71 61.31 199.47 17.431z" class="B D"/><path d="M1445.61 377.852c14.1 10.952 29.54 32.873 20.23 54.77-.96 2.258-10.14 22.889-32.02 27.639-26.66 5.786-40.09-18.949-70.79-16.728-33.24 2.405-43.68 33.308-61.17 30.389-20.69-3.451-38.02-51.99-12.15-83.37 31.17-37.803 117.98-42.148 155.9-12.7z" class="B D"/><path d="M246.937 136.891c12.57 21.725 24.995 63.165 12.758 100.6-1.262 3.86-13.195 39.067-35.64 44.011-27.338 6.022-37.38-40.097-68.263-41.06-33.445-1.042-48.027 52.223-65.06 44.236-20.141-9.444-30.849-98.503-.832-150.148 36.16-62.215 123.239-56.054 157.037 2.361z" class="B C"/><path d="M888.507 432.947c-25.886-19.22-51.045-57.767-24.581-96.419 2.728-3.985 28.508-40.405 75.674-48.908 57.448-10.358 77.51 33.16 142.24 29.063 70.1-4.437 101.82-58.971 137.36-53.93 42.03 5.96 62.56 91.413-1.49 146.878-77.16 66.818-259.598 74.996-329.203 23.316z" class="B C"/><path d="M814.922 399.538c21.642-19.025 44.327-55.634 27.045-89.351-1.782-3.477-18.719-35.198-54.537-40.225-43.625-6.122-62.776 34.725-112.562 34.733-53.915.009-73.948-47.887-101.889-41.235-33.04 7.867-56.037 86.984-11.048 133.861 54.198 56.471 194.797 53.374 252.991 2.217z" class="B D"/><path d="M862.472 141.004c40.547 10.662 83.607 30.461 52.864 47.253-3.169 1.732-33.343 17.505-99.226 18.752-80.247 1.519-116.929-20.339-208.741-22.225-99.427-2.042-134.768 21.983-186.517 17.485-61.193-5.319-106.25-47.124-24.852-69.678 98.058-27.171 357.443-20.256 466.472 8.413z" class="B D"/><path d="M195.139 382.866c19.086-22.152 39.211-64.485 24.315-102.888-1.536-3.96-16.144-40.079-47.474-45.293-38.16-6.35-55.219 40.79-98.817 41.565-47.214.839-64.419-53.783-88.934-45.724-28.989 9.53-49.687 100.619-10.621 153.688 47.062 63.93 170.208 58.217 221.531-1.348z" class="B D"/></g><defs><filter id="A" x="-160" y="-160" width="1760" height="864" filterUnits="userSpaceOnUse" color-interpolation-filters="sRGB"><feFlood flood-opacity="0"/><feBlend in="SourceGraphic"/><feGaussianBlur stdDeviation="80"/></filter><clipPath id="B"><path fill="#fff" d="M0 0h1440v544H0z"/></clipPath></defs></svg>

<svg width="1440" height="544" viewBox="0 0 1440 544" fill="none" xmlns="http://www.w3.org/2000/svg">
<g clip-path="url(#clip0_212_16580)" filter="url(#filter0_f_212_16580)">
<path opacity="0.15" d="M1374.19 237.88C1407.7 274.97 1434.88 339.451 1384.8 384.973C1379.63 389.666 1331.18 432.248 1258.3 426.96C1169.54 420.52 1151.34 350.812 1053.38 332.716C947.298 313.119 885.037 379.425 833.231 359.056C771.971 334.97 764.451 205.071 875.331 149.396C1008.91 82.3255 1284.08 138.151 1374.19 237.88Z" fill="#EBC136"/>
<path opacity="0.15" d="M539.245 429.639C570.307 410.569 604.155 372.148 583.134 333.285C580.966 329.278 560.262 292.654 511.679 283.834C452.505 273.09 423.162 316.52 355.092 311.996C281.375 307.096 257.688 252.301 218.971 257.114C173.189 262.806 135.627 348.21 193.513 404.149C263.248 471.538 455.723 480.917 539.245 429.639Z" fill="#EBC136"/>
<path opacity="0.15" d="M721.575 321.89C706.187 300.799 690.464 260.221 703.947 222.859C705.337 219.007 718.519 183.857 744.877 178.297C776.983 171.526 790.013 216.799 826.481 216.823C865.973 216.849 881.817 163.774 902.122 171.155C926.131 179.883 941.044 267.57 906.944 319.508C865.865 382.075 762.953 378.602 721.575 321.89Z" fill="#EBC136"/>
<path opacity="0.15" d="M709.467 274.802C726.285 264.124 744.622 242.633 733.277 220.936C732.107 218.699 720.931 198.254 694.654 193.363C662.649 187.407 646.745 211.693 609.923 209.218C570.047 206.538 557.27 175.943 536.322 178.661C511.55 181.876 491.171 229.62 522.448 260.828C560.128 298.423 664.247 303.514 709.467 274.802Z" fill="#EBC136"/>
<path opacity="0.15" d="M1433.62 248.365C1451.76 232.046 1471.7 199.494 1459.95 167.192C1458.74 163.861 1447.14 133.43 1419.17 126.595C1385.09 118.269 1367.7 154.965 1328.42 151.946C1285.89 148.678 1272.75 103.066 1250.34 107.534C1223.83 112.818 1201.28 184.751 1234.15 230.934C1273.76 286.569 1384.86 292.244 1433.62 248.365Z" fill="#8047F8"/>
<path opacity="0.15" d="M1445.61 377.852C1459.71 388.804 1475.15 410.725 1465.84 432.622C1464.88 434.88 1455.7 455.511 1433.82 460.261C1407.16 466.047 1393.73 441.312 1363.03 443.533C1329.79 445.938 1319.35 476.841 1301.86 473.922C1281.17 470.471 1263.84 421.932 1289.71 390.552C1320.88 352.749 1407.69 348.404 1445.61 377.852Z" fill="#8047F8"/>
<path opacity="0.15" d="M246.937 136.891C259.507 158.616 271.932 200.056 259.695 237.491C258.433 241.351 246.5 276.558 224.055 281.502C196.717 287.524 186.675 241.405 155.792 240.442C122.347 239.4 107.765 292.665 90.7319 284.678C70.5904 275.234 59.883 186.175 89.8998 134.53C126.06 72.3152 213.139 78.4762 246.937 136.891Z" fill="#EBC136"/>
<path opacity="0.15" d="M888.507 432.947C862.621 413.727 837.462 375.18 863.926 336.528C866.654 332.543 892.434 296.123 939.6 287.62C997.048 277.262 1017.11 320.78 1081.84 316.683C1151.94 312.246 1183.66 257.712 1219.2 262.753C1261.23 268.713 1281.76 354.166 1217.71 409.631C1140.55 476.449 958.112 484.627 888.507 432.947Z" fill="#EBC136"/>
<path opacity="0.15" d="M814.922 399.538C836.564 380.513 859.249 343.904 841.967 310.187C840.185 306.71 823.248 274.989 787.43 269.962C743.805 263.84 724.654 304.687 674.868 304.695C620.953 304.704 600.92 256.808 572.979 263.46C539.939 271.327 516.942 350.444 561.931 397.321C616.129 453.792 756.728 450.695 814.922 399.538Z" fill="#8047F8"/>
<path opacity="0.15" d="M862.472 141.004C903.019 151.666 946.079 171.465 915.336 188.257C912.167 189.989 881.993 205.762 816.11 207.009C735.863 208.528 699.181 186.67 607.369 184.784C507.942 182.742 472.601 206.767 420.852 202.269C359.659 196.95 314.602 155.145 396 132.591C494.058 105.42 753.443 112.335 862.472 141.004Z" fill="#8047F8"/>
<path opacity="0.15" d="M195.139 382.866C214.225 360.714 234.35 318.381 219.454 279.978C217.918 276.018 203.31 239.899 171.98 234.685C133.82 228.335 116.761 275.475 73.1632 276.25C25.9491 277.089 8.74424 222.467 -15.7709 230.526C-44.7595 240.056 -65.4579 331.145 -26.3915 384.214C20.6708 448.144 143.816 442.431 195.139 382.866Z" fill="#8047F8"/>
</g>
<defs>
<filter id="filter0_f_212_16580" x="-160" y="-160" width="1760" height="864" filterUnits="userSpaceOnUse" color-interpolation-filters="sRGB">
<feFlood flood-opacity="0" result="BackgroundImageFix"/>
<feBlend mode="normal" in="SourceGraphic" in2="BackgroundImageFix" result="shape"/>
<feGaussianBlur stdDeviation="80" result="effect1_foregroundBlur_212_16580"/>
</filter>
<clipPath id="clip0_212_16580">
<rect width="1440" height="544" fill="white"/>
</clipPath>
</defs>
</svg>
